X: 545
T: Nian gaomian
%%abc-version 2.0
%%abcx-abcm2ps-target-version 5.9.1 (29 Sep 2008)
%%abc-creator hum2abc beta
%%abcx-conversion-date 2013/10/02 07:52:30
%%abc-edited-by Helmut Schaffrath
%%humdrum-veritas 2762741449
%%humdrum-veritas-data 1902394872
%%continueall 1
%%barnumbers 0
L: 1/8
M: 2/4
K: A
e2c B [I:setbarnb 1]| 
e2c B | 
e c e A | 
B B B B | 
B e e B | 
eB2A | 
B2z2 | 
B ce2 | 
f e c3/ e/ | 
F2B2 | 
B c G F | 
E2z2 | 
B B B c | 
G/ F/ F/ F/E2 | 
B2e2 | 
B2B3/ c/ | 
G B G F | 
E4 |]  



